svg/emoji_u1f92c.svg

<?xml version="1.0" encoding="UTF-8" standalone="no"?>
<!DOCTYPE svg PUBLIC "-//W3C//DTD SVG 1.1//EN" "http://www.w3.org/Graphics/SVG/1.1/DTD/svg11.dtd">
<svg width="100%" height="100%" viewBox="0 0 128 128" version="1.1" xmlns="http://www.w3.org/2000/svg" xmlns:xlink="http://www.w3.org/1999/xlink" xml:space="preserve" xmlns:serif="http://www.serif.com/" style="fill-rule:evenodd;clip-rule:evenodd;stroke-linejoin:round;stroke-miterlimit:2;">
    <path d="M63.99,9.64C1.68,9.64 0.2,79.5 0.2,93.33C0.2,107.16 28.76,118.36 63.99,118.36C99.23,118.36 127.78,107.15 127.78,93.33C127.78,79.5 126.31,9.64 63.99,9.64Z" style="fill:rgb(252,194,27);fill-rule:nonzero;"/>
    <g>
        <clipPath id="_clip1">
            <path d="M63.99,9.64C1.68,9.64 0.2,79.5 0.2,93.33C0.2,107.16 28.76,118.36 63.99,118.36C99.23,118.36 127.78,107.15 127.78,93.33C127.78,79.5 126.31,9.64 63.99,9.64Z"/>
        </clipPath>
        <g clip-path="url(#_clip1)">
            <g transform="matrix(2.19156,0,0,1.86971,-76.2596,-57.7292)">
                <ellipse cx="64" cy="47.638" rx="64" ry="47.638" style="fill:url(#_Radial2);"/>
            </g>
        </g>
    </g>
    <g>
        <path d="M51.25,51.1C52.19,51.18 52.97,51.92 53.06,52.85L53.06,52.87C53.56,58.61 50.07,63.6 45.28,64.02C40.49,64.44 36.18,60.13 35.67,54.39C35.48,52.24 35.86,50.19 36.65,48.45C37.14,47.38 38.47,47.01 39.49,47.6C42.8,49.51 46.84,50.75 51.25,51.1ZM78.38,51.1C77.44,51.18 76.66,51.92 76.57,52.85L76.57,52.87C76.07,58.61 79.56,63.6 84.35,64.02C89.14,64.44 93.45,60.13 93.96,54.39C94.15,52.24 93.77,50.19 92.98,48.45C92.49,47.38 91.16,47.01 90.14,47.6C86.83,49.51 82.79,50.75 78.38,51.1Z" style="fill:rgb(47,47,47);fill-rule:nonzero;"/>
    </g>
    <path d="M43.09,98.64C45.08,99.98 47.59,99.1 49.8,98.64C55.98,97.36 61.4,97.31 64,97.31C66.6,97.31 72.03,97.36 78.2,98.64C80.41,99.1 82.92,99.98 84.91,98.64C87.43,96.93 85.57,90.81 81.6,86.67C79.2,84.17 73.47,79.32 63.99,79.32C54.51,79.32 48.79,84.17 46.38,86.67C42.43,90.82 40.57,96.94 43.09,98.64Z" style="fill:rgb(237,108,48);fill-rule:nonzero;"/>
    <path d="M104.292,81.715C104.292,81.329 103.978,81.015 103.592,81.015L24.407,81.015C24.021,81.015 23.707,81.329 23.707,81.715L23.707,97.596C23.707,97.982 24.021,98.296 24.407,98.296L103.592,98.296C103.978,98.296 104.292,97.982 104.292,97.596L104.292,81.715Z" style="fill:rgb(68,20,0);"/>
    <g transform="matrix(1,0,0,1,26.371,97.861)">
        <text x="0px" y="0px" style="font-family:'ComicNeue-Bold', 'Comic Neue';font-weight:700;font-size:24.83px;fill:white;fill-opacity:0.91;">%#!$&amp;</text>
    </g>
    <defs>
        <radialGradient id="_Radial2" cx="0" cy="0" r="1" gradientUnits="userSpaceOnUse" gradientTransform="matrix(64,0,0,47.6377,64,47.6377)"><stop offset="0" style="stop-color:rgb(219,68,55);stop-opacity:1"/><stop offset="1" style="stop-color:rgb(219,68,55);stop-opacity:0"/></radialGradient>
    </defs>
</svg>

<svg xmlns="http://www.w3.org/2000/svg" xmlns:xlink="http://www.w3.org/1999/xlink" width="128" height="128"><path d="M63.99 9.64C1.68 9.64.2 79.5.2 93.33c0 13.83 28.56 25.03 63.79 25.03 35.24 0 63.79-11.21 63.79-25.03 0-13.83-1.47-83.69-63.79-83.69z" fill="#fcc21b"/><defs><path id="a" d="M63.99 9.64C1.68 9.64.2 79.5.2 93.33c0 13.83 28.56 25.03 63.79 25.03 35.24 0 63.79-11.21 63.79-25.03 0-13.83-1.47-83.69-63.79-83.69z"/></defs><clipPath id="b"><use xlink:href="#a" overflow="visible"/></clipPath><g clip-path="url(#b)"><path d="M85.87 82.6c-33.26 8.25-69.93-3.39-82.01-26.08C-8.19 33.87 8.89 8.77 42.12.48c33.15-8.24 69.9 3.43 82.04 26.11 12.02 22.68-5.12 47.78-38.29 56.01z" fill="#fcc21b"/><path d="M84.96 80.88c-31.86 7.91-67-3.25-78.57-24.99-11.56-21.7 4.81-45.76 36.65-53.7 31.76-7.89 67.02 3.27 78.61 25.02 11.55 21.71-4.92 45.78-36.69 53.67z" fill="#fcc01c"/><path d="M84.04 79.16C53.57 86.72 19.97 76.05 8.9 55.27-2.15 34.51 13.5 11.51 43.95 3.91c30.37-7.55 64.09 3.12 75.17 23.93 11.06 20.76-4.69 43.78-35.08 51.32z" fill="#fcbe1c"/><path d="M83.13 77.44c-29.08 7.21-61.14-2.97-71.71-22.8C.87 34.83 15.81 12.88 44.87 5.63c28.99-7.2 61.17 2.98 71.74 22.83 10.55 19.82-4.49 41.78-33.48 48.98z" fill="#fbbb1d"/><path d="M82.21 75.72c-27.68 6.87-58.22-2.83-68.28-21.71C3.89 35.15 18.12 14.26 45.78 7.35c27.6-6.86 58.24 2.84 68.31 21.74 10.04 18.86-4.27 39.78-31.88 46.63z" fill="#fbb91e"/><path d="M81.29 74.01C55 80.53 26.01 71.32 16.45 53.39 6.91 35.48 20.42 15.63 46.7 9.07c26.21-6.51 55.31 2.69 64.87 20.65 9.54 17.91-4.05 37.77-30.28 44.29z" fill="#fbb71e"/><path d="M80.38 72.29c-24.9 6.17-52.36-2.54-61.41-19.53C9.94 35.8 22.73 17 47.61 10.79c24.82-6.17 52.38 2.55 61.44 19.55 9.04 16.97-3.84 35.78-28.67 41.95z" fill="#fbb51f"/><path d="M79.46 70.57c-23.51 5.83-49.43-2.4-57.98-18.44-8.53-16.01 3.55-33.76 27.04-39.62 23.44-5.82 49.45 2.41 58 18.46 8.54 16.01-3.61 33.78-27.06 39.6z" fill="#fab220"/><path d="M78.55 68.85C56.43 74.33 32.04 66.59 24 51.51c-8.02-15.07 3.34-31.76 25.44-37.28 22.05-5.48 46.53 2.27 54.57 17.37 8.03 15.06-3.41 31.77-25.46 37.25z" fill="#fab020"/><path d="M77.63 67.13c-20.72 5.14-43.58-2.12-51.11-16.25C19 36.76 29.65 21.11 50.36 15.95c20.66-5.13 43.6 2.12 51.14 16.27 7.51 14.12-3.2 29.78-23.87 34.91z" fill="#faae21"/><path d="M76.71 65.41c-19.33 4.79-40.65-1.98-47.68-15.16-7.01-13.17 2.93-27.76 22.24-32.59 19.27-4.79 40.67 1.98 47.7 15.18 7.02 13.18-2.98 27.78-22.26 32.57z" fill="#faac22"/><path d="M75.8 63.69c-17.94 4.44-37.72-1.84-44.25-14.07-6.5-12.22 2.72-25.77 20.64-30.24 17.89-4.45 37.74 1.84 44.27 14.09 6.51 12.22-2.77 25.78-20.66 30.22z" fill="#f9a922"/><path d="M74.88 61.98c-16.54 4.1-34.8-1.7-40.82-12.98-6-11.27 2.51-23.77 19.04-27.89C69.6 17 87.92 22.8 93.94 34.1c6 11.27-2.55 23.77-19.06 27.88z" fill="#f9a723"/><path d="M73.97 60.26C58.81 64.01 42.1 58.7 36.58 48.37c-5.49-10.32 2.3-21.77 17.44-25.55 15.11-3.76 31.89 1.55 37.4 11.9 5.5 10.33-2.34 21.78-17.45 25.54z" fill="#f9a524"/><path d="M73.05 58.54c-13.76 3.41-28.94-1.41-33.95-10.8-4.99-9.38 2.09-19.77 15.84-23.2 13.72-3.41 28.96 1.41 33.97 10.81 4.99 9.37-2.13 19.78-15.86 23.19z" fill="#f9a324"/><path d="M72.13 56.82c-12.37 3.06-26.02-1.27-30.52-9.7-4.48-8.43 1.88-17.77 14.24-20.85 12.34-3.07 26.03 1.27 30.53 9.71 4.49 8.42-1.91 17.77-14.25 20.84z" fill="#f8a025"/><path d="M71.22 55.1c-10.97 2.71-23.09-1.13-27.09-8.61-3.98-7.48 1.67-15.77 12.64-18.51 10.95-2.72 23.1 1.12 27.1 8.62 3.98 7.48-1.7 15.78-12.65 18.5z" fill="#f89e26"/><path d="M70.3 53.38c-9.58 2.37-20.16-.99-23.65-7.52-3.47-6.53 1.46-13.77 11.04-16.16 9.56-2.38 20.17.98 23.66 7.53C84.82 43.76 79.86 51 70.3 53.38z" fill="#f89c26"/><path d="M69.39 51.66c-8.19 2.02-17.23-.85-20.22-6.43-2.97-5.58 1.25-11.77 9.43-13.82 8.18-2.04 17.25.84 20.23 6.43 2.97 5.59-1.27 11.79-9.44 13.82z" fill="#f89a27"/><path d="M68.47 49.94c-6.8 1.68-14.32-.7-16.79-5.34-2.47-4.63 1.04-9.77 7.83-11.47 6.79-1.69 14.32.69 16.8 5.34 2.47 4.64-1.05 9.78-7.84 11.47z" fill="#f79728"/><path d="M67.55 48.23c-5.4 1.33-11.39-.56-13.36-4.25-1.96-3.68.83-7.77 6.23-9.12 5.4-1.35 11.39.55 13.36 4.25 1.97 3.68-.83 7.77-6.23 9.12z" fill="#f79528"/><path d="M66.64 46.51c-4.01.98-8.45-.42-9.93-3.15-1.45-2.74.62-5.78 4.63-6.78s8.45.41 9.93 3.15c1.45 2.74-.62 5.78-4.63 6.78z" fill="#f79329"/></g><g fill="#2f2f2f"><path d="M51.25 51.1c.94.08 1.72.82 1.81 1.75v.02c.5 5.74-2.99 10.73-7.78 11.15-4.79.42-9.1-3.89-9.61-9.63-.19-2.15.19-4.2.98-5.94.49-1.07 1.82-1.44 2.84-.85 3.31 1.91 7.35 3.15 11.76 3.5zM78.38 51.1c-.94.08-1.72.82-1.81 1.75v.02c-.5 5.74 2.99 10.73 7.78 11.15 4.79.42 9.1-3.89 9.61-9.63.19-2.15-.19-4.2-.98-5.94-.49-1.07-1.82-1.44-2.84-.85-3.31 1.91-7.35 3.15-11.76 3.5z"/></g><path d="M43.09 98.64c1.99 1.34 4.5.46 6.71 0 6.18-1.28 11.6-1.33 14.2-1.33 2.6 0 8.03.05 14.2 1.33 2.21.46 4.72 1.34 6.71 0 2.52-1.71.66-7.83-3.31-11.97-2.4-2.5-8.13-7.35-17.61-7.35-9.48 0-15.2 4.85-17.61 7.35-3.95 4.15-5.81 10.27-3.29 11.97z" fill="#ed6c30"/><rect width="80.585" height="17.281" x="23.707" y="81.015" rx=".7" ry=".7" fill="#441400" stroke-width="3.78" stroke-linejoin="round"/><text style="line-height:1.25" x="26.371" y="97.861" font-weight="400" font-size="24.83" font-family="sans-serif" letter-spacing="0" word-spacing="0" fill="#fff" fill-opacity=".909" stroke-width=".621"><tspan x="26.371" y="97.861" style="-inkscape-font-specification:'Comic Neue Bold'" font-weight="700" font-family="Comic Neue">%#!$&amp;</tspan></text></svg>
